X:1
T:Mauburn, PM
T:Thomas Tertius Noble, 1918
T:Mauburn, PM
T:Public Domain
T:Public Domain
C:Thomas Tertius Noble, 1918
Z:Public Domain
%%score ( 1 2 ) ( 3 4 )
L:1/8
M:4/4
K:Eb
V:1 treble 
V:2 treble 
V:3 bass 
V:4 bass 
V:1
 z2 F2 [EA]2 (F2 E2) [DA]2 | (E2 D2) [CF]2 [EG]6 | E4 [DF]2 [EG]4 [EA]2 [EG]6 [DG]6 | %3
 [FA]4 [FB]2 (A2 G2) [FB]2 | [FA]4 [EG]2 [FA]6 | [DF]4 [EG]2 [FA]4 [FB]2 | [FG]6 [EG]6 | %7
 [EB]4 [Ec]2 (E2 F2) [EG]2 | [DB]4 [Ec]2 [EB]6 | [EB]4 [F_d]2 [Ec]4 B2 | [EA]4 [EG]2 [DF]6 | %11
 z2 E2 [DB]2 [Fc]4 F2 | (D2 E2 F2 A2 G2 F2) | z2 F2 [EA]2 (F2 E2) [DA]2 | (E2 D2) [CF]2 [EG]6 | %15
 E4 [DF]2 [EG]4 [EA]2 | [EG]4 [FG]2 [EG]6 | [Ee]4 [Ec]2 [Ec]4 [EA]2 | [EB]8 |] %19
V:2
 G4 B4 x4 | G4 x8 | E4 x20 | x6 c4 x2 | x12 | x12 | x12 | x6 B4 x2 | x12 | x10 =D2 | x12 | %11
 F4 x4 F2 x2 | B12 | G4 B4 x4 | G4 x8 | E4 x8 | x12 | x12 | x8 |] %19
V:3
 (E2 D2) [E,C]2 (D2 C2) [E,B,]2 | (C2 B,2) [E,A,]2 (E,2 F,2 G,2) | %2
 ([A,C]2 [G,B,]2) [F,A,]2 (E,2 D,2) [C,C]2 E,4 F,2 [G,=B,]6 | (F,2 E,2) [D,D]2 [C,E]4 [D,D]2 | %4
 [F,C]4 [C,C]2 (F,2 G,2 A,2) | z2 A,2 [G,B,]2 (F,2 E,2) [D,B,]2 | [E,B,]12 | %7
 (E,2 D,2) [C,A,]2 (G,2 A,2) [E,B,]2 | G,4 [C,G,]2 [E,G,]6 | [E,G,]4 [_D,A,]2 [A,,A,]4 [B,,F,]2 | %10
 [C,C]4 [E,B,]2 [B,,B,]6 | (D2 C2) B,2 (=A,2 G,2) A,2 | (B,2 C2 D2 F2 E2 D2) | %13
 (B,2 D2) C2 (D2 C2) B,2 | (C2 B,2) A,2 (E,2 F,2 G,2) | ([A,C]2 [G,B,]2) [F,A,]2 (E,2 D,2) [C,C]2 | %16
 [E,B,]4 [D,=B,]2 (C,4 _B,,2) | [A,,C]4 [A,,A,]2 [A,,A,]4 [A,,C]2 | [E,G,]8 |] %19
V:4
 E,4 E,4 x4 | E,4 B,6 x2 | x6 =B,4 B,6 x8 | C4 x8 | x6 C6 | B,4 C4 x4 | x12 | G,4 E,4 x4 | G,4 x8 | %9
 x12 | x12 | F,4 F,2 F,4 F,2 | B,,12 | E,4 E,2 E,4 E,2 | E,4 E,2 B,6 | x6 B,4 x2 | x6 C6 | x12 | %18
 x8 |] %19

